icon/lg/woopra.svg

<?xml version="1.0" encoding="UTF-8"?>
<svg viewBox="0 0 512 121" version="1.1" xmlns="http://www.w3.org/2000/svg" xmlns:xlink="http://www.w3.org/1999/xlink" preserveAspectRatio="xMidYMid" height="1em" width="1em">
  <g>
    <path d="M356.601963,21.1510085 C366.181378,21.1510085 374.319474,24.7712831 381.016252,32.0102555 C387.713029,39.2492278 391.062376,48.5332137 391.064292,59.8622131 C391.064292,70.7884939 387.602483,79.9272558 380.678865,87.2784989 C373.755247,94.629742 365.549903,98.3045972 356.062833,98.3030645 C352.01742,98.3381988 348.005135,97.5714516 344.257737,96.0471123 C340.615644,94.5423778 336.996924,92.0804681 333.401578,88.6613833 L333.401578,120.518303 L315.124054,120.518303 L315.124054,23.0404744 L333.402152,23.0404744 L333.402152,31.1302904 C336.488486,27.9696167 340.151519,25.4291979 344.193363,23.6462766 C348.114091,21.9705705 352.338259,21.1213933 356.601963,21.1510085 Z M168.534289,-0.00271393173 C183.250569,-0.00271393173 196.623624,5.29863143 209.417891,16.1737581 C219.805617,25.0050209 228.173045,36.0410817 236.26516,46.7081436 C236.497223,47.0140488 236.72902,47.3196057 236.960561,47.6246984 L237.654425,48.5384686 C237.769944,48.690493 237.885401,48.8423724 238.000798,48.9940925 L238.692462,49.9023842 L238.692462,49.9023842 L239.38273,50.806156 C249.496699,64.0249366 259.178447,75.5613416 269.229651,75.5613416 C278.58647,75.5207939 286.144406,67.9132307 286.123716,58.5563473 C286.123716,49.4181601 278.544866,41.577792 269.229651,41.577792 C263.167606,41.577792 257.241205,45.7810478 251.272846,52.0132236 C248.482362,48.5548632 245.71257,44.8867136 243.120955,41.4691615 C241.4846,39.3126436 239.803987,37.0957753 238.075094,34.8541922 C246.932222,26.2154757 256.899794,20.1022762 269.227352,20.1022762 C290.384448,20.1022762 307.596358,37.5360453 307.598659,58.5528987 C307.605703,79.7649704 290.44165,96.9801899 269.229651,97.0362827 C248.574009,97.0362827 234.543526,79.9022665 221.249867,62.447704 L220.411192,61.3450413 C220.271558,61.1612454 220.131992,60.9774532 219.992487,60.7936844 L219.156133,59.6915079 C211.760058,49.9429204 204.112236,39.8621188 195.509155,32.5488102 C186.639383,25.009619 178.069064,21.4696419 168.534289,21.4696419 C155.280584,21.4696417 143.033655,28.5404091 136.406802,40.0184546 C129.779949,51.4965001 129.779949,65.6380354 136.406802,77.1160809 C143.033655,88.5941264 155.280584,95.6648939 168.534289,95.6648936 C178.069064,95.6648936 186.639958,92.1542296 195.509155,84.6156131 C201.685579,79.3651358 207.368854,72.6834938 212.821649,65.7288385 C217.247913,71.5667256 221.760967,77.4994489 226.582095,82.914309 C221.348861,89.3620217 215.760422,95.5804032 209.417891,100.972273 C196.623624,111.848549 183.24827,117.142422 168.534289,117.142422 C147.564722,117.207822 128.159877,106.058397 117.656085,87.9090883 C107.152293,69.7597794 107.152293,47.379929 117.656085,29.2306202 C128.159877,11.0813114 147.564722,-0.0681137218 168.534289,-0.00271393173 Z M470.480133,21.1506474 C474.739174,21.1204404 478.95861,21.9696498 482.874363,23.6451271 C486.897507,25.4198198 490.536023,27.9619198 493.586257,31.1291409 L493.586257,23.0404744 L512,23.0404744 L512,96.4155366 L493.586257,96.4155366 L493.586257,88.6602338 C489.992443,92.0785522 486.389051,94.5404619 482.776079,96.0459628 C479.046817,97.5726775 475.050492,98.3402096 471.020987,98.3036393 C461.543114,98.3036393 453.347541,94.6282093 446.434269,87.2773494 C439.520996,79.9264895 436.062061,70.7877275 436.057463,59.8610636 C436.057463,48.5289988 439.403553,39.2450129 446.095732,32.009106 C452.787911,24.773199 460.916045,21.1537128 470.480133,21.1506474 Z M18.020604,23.0398997 L32.774819,64.7844997 L48.6521247,23.0398997 L59.6738164,23.0398997 L75.2614406,64.314342 L90.0374967,23.0398997 L108.178227,23.0398997 L81.4028036,96.4155366 L69.7322022,96.4155366 L54.0882511,54.60139 L37.9678199,96.4155366 L26.4386107,96.4155366 L0,23.0398997 L18.020604,23.0398997 Z M431.125405,21.1510426 C433.731645,21.2059172 436.29144,21.8517128 438.611718,23.0398997 L432.879013,38.8867428 C430.721346,37.8069511 428.945514,37.2680132 427.551517,37.2699291 C424.719842,37.2699291 422.324988,39.0227705 420.366956,42.5284532 C418.408924,46.0341359 417.431823,52.9140718 417.435655,63.1682608 L417.501178,66.742149 L417.501178,96.4149618 L399.223654,96.4149618 L399.227103,23.0404744 L415.008998,23.0404744 L415.008998,32.2780959 C416.468792,28.9362863 418.82641,26.0645679 421.819962,23.9819393 C424.565746,22.1224066 427.80924,21.1357354 431.125405,21.1510426 Z M352.756786,38.1447213 L352.757361,38.145296 C346.958749,38.145296 342.147967,40.12402 338.325014,44.081468 C334.502061,48.0389159 332.591159,53.2098841 332.592308,59.5943727 C332.592308,66.1125898 334.50321,71.3843335 338.325014,75.4096037 C342.146817,79.4348739 346.957599,81.4465511 352.757361,81.4446352 C358.152999,81.5419436 363.327971,79.3051826 366.954054,75.3084451 C370.799614,71.2165022 372.721436,66.0007023 372.719522,59.6610454 C372.719522,53.3673697 370.831226,48.20828 367.054637,44.1837761 C363.278049,40.1592723 358.512098,38.146254 352.756786,38.1447213 Z M474.232198,38.1447213 L474.232198,38.145296 C468.538577,38.145296 463.810753,40.1581227 460.048725,44.1837761 C456.286697,48.2094295 454.404342,53.3685192 454.40166,59.6610454 C454.40166,65.9984032 456.317543,71.2142031 460.149309,75.3084451 C463.75642,79.3029419 468.91588,81.540699 474.297147,81.4446352 C480.079665,81.4446352 484.874162,79.432958 488.680638,75.4096037 C492.487115,71.3862494 494.390736,66.1145057 494.391502,59.5943727 C494.391502,53.2083514 492.487881,48.0373832 488.680638,44.081468 C484.873396,40.1255527 480.057249,38.1466372 474.232198,38.1447213 Z" fill="#020202"/>
  </g>
</svg>

<svg width="512" height="121" xmlns="http://www.w3.org/2000/svg" preserveAspectRatio="xMidYMid"><path d="M356.602 21.151c9.58 0 17.717 3.62 24.414 10.86 6.697 7.238 10.046 16.522 10.048 27.851 0 10.926-3.462 20.065-10.385 27.416-6.924 7.352-15.13 11.027-24.616 11.025a30.625 30.625 0 0 1-11.805-2.256c-3.642-1.505-7.261-3.967-10.856-7.386v31.857h-18.278V23.04h18.278v8.09a34.6 34.6 0 0 1 10.791-7.484 31.025 31.025 0 0 1 12.409-2.495ZM168.534-.003c14.717 0 28.09 5.302 40.884 16.177 10.388 8.831 18.755 19.867 26.847 30.534l.696.917.693.913.347.456.691.908.69.904c10.115 13.219 19.796 24.755 29.848 24.755 9.356-.04 16.914-7.648 16.894-17.005 0-9.138-7.58-16.978-16.894-16.978-6.062 0-11.989 4.203-17.957 10.435-2.79-3.458-5.56-7.126-8.152-10.544-1.636-2.156-3.317-4.373-5.046-6.615 8.857-8.639 18.825-14.752 31.152-14.752 21.157 0 38.37 17.434 38.372 38.45.007 21.213-17.157 38.428-38.37 38.484-20.655 0-34.685-17.134-47.98-34.588l-.838-1.103-.419-.551-.836-1.102c-7.396-9.75-15.044-19.83-23.647-27.143-8.87-7.54-17.44-11.08-26.975-11.08a37.098 37.098 0 1 0 0 74.196c9.535 0 18.106-3.51 26.975-11.05 6.177-5.25 11.86-11.932 17.313-18.886 4.426 5.838 8.939 11.77 13.76 17.185-5.233 6.448-10.822 12.666-17.164 18.058-12.794 10.877-26.17 16.17-40.884 16.17a58.573 58.573 0 1 1 0-117.145ZM470.48 21.151c4.26-.03 8.479.819 12.394 2.494a33.825 33.825 0 0 1 10.712 7.484V23.04H512v73.376h-18.414V88.66c-3.594 3.419-7.197 5.88-10.81 7.386a30.301 30.301 0 0 1-11.755 2.258c-9.478 0-17.673-3.676-24.587-11.027-6.913-7.35-10.372-16.49-10.377-27.416 0-11.332 3.347-20.616 10.039-27.852 6.692-7.236 14.82-10.855 24.384-10.858ZM18.02 23.04l14.755 41.744L48.652 23.04h11.022L75.26 64.314 90.037 23.04h18.141L81.403 96.416h-11.67L54.087 54.6l-16.12 41.815h-11.53L0 23.04h18.02Zm413.105-1.889c2.607.055 5.166.7 7.487 1.889l-5.733 15.847c-2.158-1.08-3.933-1.619-5.327-1.617-2.832 0-5.227 1.753-7.185 5.258-1.958 3.506-2.935 10.386-2.931 20.64l.065 3.574v29.673h-18.277l.003-73.375h15.782v9.238a19.725 19.725 0 0 1 6.811-8.296 16.46 16.46 0 0 1 9.305-2.831Zm-78.368 16.994c-5.798 0-10.609 1.979-14.432 5.936-3.823 3.958-5.734 9.129-5.733 15.513 0 6.519 1.911 11.79 5.733 15.816 3.822 4.025 8.633 6.037 14.432 6.035a18.713 18.713 0 0 0 14.197-6.137c3.846-4.091 5.767-9.307 5.766-15.647 0-6.294-1.889-11.453-5.665-15.477-3.777-4.025-8.543-6.038-14.298-6.04Zm121.475 0c-5.693 0-10.421 2.013-14.183 6.039-3.762 4.025-5.645 9.185-5.647 15.477 0 6.337 1.916 11.553 5.747 15.647a18.615 18.615 0 0 0 14.148 6.137c5.783 0 10.577-2.012 14.384-6.035 3.806-4.024 5.71-9.295 5.71-15.816 0-6.386-1.903-11.557-5.71-15.513-3.808-3.955-8.624-5.934-14.449-5.936Z" fill="#020202"/></svg>
